src/assets/icons/shapes,simple,outline-triangle.svg

<svg width="48" height="48" viewBox="0 0 48 48" fill="none" xmlns="http://www.w3.org/2000/svg">
<rect opacity="0.2" x="5" y="5" width="38" height="38" rx="4" fill="black"/>
<path d="M21.4019 17.5C22.1886 16.1374 22.7235 15.2164 23.1955 14.6218C23.6619 14.0342 23.8858 14 24 14C24.1142 14 24.3381 14.0342 24.8045 14.6218C25.2765 15.2164 25.8114 16.1374 26.5981 17.5L33.5263 29.5C34.313 30.8626 34.8432 31.7863 35.1221 32.4924C35.3977 33.1901 35.3154 33.4011 35.2583 33.5C35.2012 33.5989 35.0596 33.7757 34.3176 33.8858C33.5666 33.9973 32.5016 34 30.9282 34H17.0718C15.4984 34 14.4334 33.9973 13.6824 33.8858C12.9404 33.7757 12.7988 33.5989 12.7417 33.5C12.6846 33.4011 12.6023 33.1901 12.8779 32.4924C13.1568 31.7863 13.687 30.8626 14.4737 29.5L21.4019 17.5Z" stroke="black" stroke-width="2"/>
</svg>

<svg xmlns="http://www.w3.org/2000/svg" width="48" height="48" fill="none" viewBox="0 0 48 48">
  <rect width="38" height="38" x="5" y="5" fill="#000" opacity=".2" rx="4"/>
  <path stroke="#000" stroke-width="2" d="M26.598 17.5l6.928 12c.787 1.363 1.317 2.286 1.596 2.992.276.698.193.91.136 1.008-.057.099-.198.276-.94.386-.751.111-1.816.114-3.39.114H17.072c-1.574 0-2.639-.003-3.39-.114-.742-.11-.883-.287-.94-.386-.057-.099-.14-.31.136-1.008.279-.706.809-1.63 1.596-2.992l6.928-12c.787-1.363 1.322-2.284 1.793-2.878.467-.588.69-.622.805-.622.114 0 .338.034.805.622.471.594 1.006 1.515 1.793 2.878z"/>
</svg>
